; G-Code generated by Simplify3D(R) Version 3.1.1
; Jun 28, 2017 at 1:01:05 PM
; Settings Summary
;   processName,Process1
;   applyToModels,Lid
;   profileName,UM2-PLACFR[10] (modified)
;   profileVersion,2017-05-30 23:12:23
;   baseProfile,Ultimaker 2 Extended+ (modified)
;   printMaterial,PLA-CFR
;   printQuality,Medium
;   printExtruders,
;   extruderName,Primary Extruder
;   extruderToolheadNumber,0
;   extruderDiameter,0.4
;   extruderAutoWidth,0
;   extruderWidth,0.4
;   extrusionMultiplier,1
;   extruderUseRetract,1
;   extruderRetractionDistance,4
;   extruderExtraRestartDistance,0
;   extruderRetractionZLift,0
;   extruderRetractionSpeed,1500
;   extruderUseCoasting,1
;   extruderCoastingDistance,1
;   extruderUseWipe,0
;   extruderWipeDistance,2
;   primaryExtruder,0
;   layerHeight,0.15
;   topSolidLayers,4
;   bottomSolidLayers,3
;   perimeterOutlines,3
;   printPerimetersInsideOut,1
;   startPointOption,2
;   startPointOriginX,0
;   startPointOriginY,0
;   startPointOriginZ,300
;   sequentialIslands,0
;   spiralVaseMode,0
;   firstLayerHeightPercentage,120
;   firstLayerWidthPercentage,110
;   firstLayerUnderspeed,0.75
;   useRaft,0
;   raftExtruder,0
;   raftLayers,3
;   raftOffset,3
;   raftSeparationDistance,0.15
;   raftInfill,85
;   disableRaftBaseLayers,1
;   useSkirt,1
;   skirtExtruder,0
;   skirtLayers,1
;   skirtOutlines,1
;   skirtOffset,1
;   usePrimePillar,0
;   primePillarExtruder,999
;   primePillarWidth,12
;   primePillarLocation,7
;   primePillarSpeedMultiplier,1
;   useOozeShield,0
;   oozeShieldExtruder,999
;   oozeShieldOffset,2
;   oozeShieldOutlines,1
;   oozeShieldSidewallShape,1
;   oozeShieldSidewallAngle,30
;   oozeShieldSpeedMultiplier,1
;   infillExtruder,0
;   internalInfillPattern,Rectilinear
;   externalInfillPattern,Rectilinear
;   infillPercentage,30
;   outlineOverlapPercentage,35
;   infillExtrusionWidthPercentage,125
;   minInfillLength,3
;   infillLayerInterval,1
;   infillAngles,45,-45
;   overlapInfillAngles,0
;   generateSupport,1
;   supportExtruder,0
;   supportInfillPercentage,30
;   supportExtraInflation,0
;   denseSupportLayers,0
;   denseSupportInfillPercentage,70
;   supportLayerInterval,1
;   supportHorizontalPartOffset,0.3
;   supportUpperSeparationLayers,1
;   supportLowerSeparationLayers,1
;   supportType,0
;   supportGridSpacing,4
;   maxOverhangAngle,45
;   supportAngles,0
;   temperatureName,Primary Extruder,Heated Build Platform
;   temperatureNumber,0,1
;   temperatureSetpointCount,1,1
;   temperatureSetpointLayers,1,1
;   temperatureSetpointTemperatures,225,40
;   temperatureStabilizeAtStartup,1,1
;   temperatureHeatedBed,0,1
;   temperatureRelayBetweenLayers,0,0
;   temperatureRelayBetweenLoops,0,0
;   fanLayers,1,2,3
;   fanSpeeds,0,60,85
;   blipFanToFullPower,1
;   adjustSpeedForCooling,1
;   minSpeedLayerTime,8
;   minCoolingSpeedSlowdown,40
;   increaseFanForCooling,1
;   minFanLayerTime,8
;   maxCoolingFanSpeed,30
;   increaseFanForBridging,1
;   bridgingFanSpeed,45
;   use5D,1
;   relativeEdistances,0
;   allowEaxisZeroing,1
;   independentExtruderAxes,0
;   includeM10123,0
;   stickySupport,1
;   applyToolheadOffsets,0
;   gcodeXoffset,0
;   gcodeYoffset,0
;   gcodeZoffset,0
;   overrideMachineDefinition,1
;   machineTypeOverride,0
;   strokeXoverride,223
;   strokeYoverride,223
;   strokeZoverride,305
;   originOffsetXoverride,0
;   originOffsetYoverride,0
;   originOffsetZoverride,0
;   homeXdirOverride,-1
;   homeYdirOverride,-1
;   homeZdirOverride,-1
;   flipXoverride,1
;   flipYoverride,-1
;   flipZoverride,1
;   toolheadOffsets,0,0|0,0|0,0|0,0|0,0|0,0
;   overrideFirmwareConfiguration,1
;   firmwareTypeOverride,RepRap (Marlin/Repetier/Sprinter)
;   GPXconfigOverride,r2
;   baudRateOverride,250000
;   overridePrinterModels,1
;   printerModelsOverride
;   startingGcode,G28 ; home all axes,G1 X20 Y10 F3000 ; bring extruder to front,G92 E0 ; zero the extruded length,G1 Z10 ; lower,G1 E19 F200 ; purge nozzle quickly,G1 E26 F60 ; purge nozzle slowly,G92 E0 ; zero the extruded length again,G1 E-5.5 F400 ; retract,G1 X190 Z0 F9000 ; pull away filament,G1 X210 F9000 ; wipe,G1 Y20 F9000 ; wipe,G1 E0 ; feed filament back
;   layerChangeGcode,
;   retractionGcode,
;   toolChangeGcode,
;   endingGcode,G28 X0 ; home the X-axis,M104 S0 ; turn off heaters,M140 S0 ; turn off bed,M84 ; disable motors
;   exportFileFormat,gcode
;   celebration,0
;   celebrationSong,Random Song
;   postProcessing,
;   defaultSpeed,2900
;   outlineUnderspeed,0.6
;   solidInfillUnderspeed,0.6
;   supportUnderspeed,0.7
;   rapidXYspeed,6000
;   rapidZspeed,1000
;   minBridgingArea,5
;   bridgingExtraInflation,0
;   bridgingExtrusionMultiplier,0.9
;   bridgingSpeedMultiplier,0.5
;   filamentDiameter,2.85
;   filamentPricePerKg,83
;   filamentDensity,1.25
;   useMinPrintHeight,0
;   minPrintHeight,0
;   useMaxPrintHeight,0
;   maxPrintHeight,0
;   useDiaphragm,0
;   diaphragmLayerInterval,20
;   robustSlicing,1
;   mergeAllIntoSolid,0
;   onlyRetractWhenCrossingOutline,0
;   retractBetweenLayers,0
;   useRetractionMinTravel,1
;   retractionMinTravel,0.02
;   retractWhileWiping,1
;   onlyWipeOutlines,1
;   avoidCrossingOutline,1
;   maxMovementDetourFactor,4
;   toolChangeRetractionDistance,12
;   toolChangeExtraRestartDistance,-0.5
;   toolChangeRetractionSpeed,600
;   allowThinWallGapFill,1
;   thinWallAllowedOverlapPercentage,30
;   horizontalSizeCompensation,0
G90
M82
M106 S0
M140 S40
M190 S40
M104 S225 T0
M109 S225 T0
G28 ; home all axes
G1 X20 Y10 F3000 ; bring extruder to front
G92 E0 ; zero the extruded length
G1 Z10 ; lower
G1 E19 F200 ; purge nozzle quickly
G1 E26 F60 ; purge nozzle slowly
G92 E0 ; zero the extruded length again
G1 E-5.5 F400 ; retract
G1 X190 Z0 F9000 ; pull away filament
G1 X210 F9000 ; wipe
G1 Y20 F9000 ; wipe
G1 E0 ; feed filament back
G92 E0
G1 E-4.0000 F1500
G1 Z0.180 F1000
; layer 1, Z = 0.18
T0
; tool H0.180 W0.440
; skirt
G1 X38.777 Y70.930 F6000
G1 E0.0000 F450
G92 E0
G1 X38.782 Y70.927 E0.0001 F2175
G1 X38.838 Y70.901 E0.0008
G1 X38.843 Y70.898 E0.0009
G1 X39.418 Y70.660 E0.0086
G1 X39.423 Y70.658 E0.0087
G1 X39.481 Y70.638 E0.0095
G1 X39.487 Y70.636 E0.0095
G1 X40.085 Y70.464 E0.0173
G1 X40.090 Y70.462 E0.0173
G1 X40.150 Y70.449 E0.0181
G1 X40.156 Y70.447 E0.0182
G1 X40.770 Y70.343 E0.0259
G1 X40.775 Y70.342 E0.0260
G1 X40.836 Y70.336 E0.0267
G1 X40.842 Y70.335 E0.0268
G1 X41.448 Y70.301 E0.0343
G1 X41.451 Y70.301 E0.0344
G1 X41.482 Y70.300 E0.0348
G1 X41.485 Y70.300 E0.0348
G1 X181.528 Y70.301 E1.7734
G1 X181.531 Y70.301 E1.7735
G1 X181.562 Y70.302 E1.7738
G1 X181.565 Y70.302 E1.7739
G1 X182.158 Y70.335 E1.7813
G1 X182.164 Y70.336 E1.7813
G1 X182.225 Y70.342 E1.7821
G1 X182.230 Y70.343 E1.7822
G1 X182.844 Y70.447 E1.7899
G1 X182.850 Y70.449 E1.7900
G1 X182.910 Y70.462 E1.7907
G1 X182.915 Y70.464 E1.7908
G1 X183.513 Y70.636 E1.7985
G1 X183.519 Y70.638 E1.7986
G1 X183.577 Y70.658 E1.7994
G1 X183.582 Y70.660 E1.7994
G1 X184.157 Y70.898 E1.8072
G1 X184.162 Y70.901 E1.8072
G1 X184.218 Y70.927 E1.8080
G1 X184.223 Y70.930 E1.8081
G1 X184.768 Y71.231 E1.8158
G1 X184.772 Y71.234 E1.8159
G1 X184.825 Y71.267 E1.8166
G1 X184.829 Y71.270 E1.8167
G1 X185.337 Y71.630 E1.8244
G1 X185.341 Y71.633 E1.8245
G1 X185.390 Y71.672 E1.8253
G1 X185.394 Y71.675 E1.8253
G1 X185.858 Y72.090 E1.8331
G1 X185.862 Y72.094 E1.8331
G1 X185.906 Y72.138 E1.8339
G1 X185.910 Y72.142 E1.8340
G1 X186.324 Y72.606 E1.8417
G1 X186.328 Y72.610 E1.8418
G1 X186.367 Y72.658 E1.8425
G1 X186.370 Y72.663 E1.8426
G1 X186.730 Y73.171 E1.8503
G1 X186.733 Y73.175 E1.8504
G1 X186.766 Y73.228 E1.8512
G1 X186.769 Y73.232 E1.8512
G1 X187.070 Y73.777 E1.8590
G1 X187.073 Y73.782 E1.8590
G1 X187.099 Y73.838 E1.8598
G1 X187.102 Y73.843 E1.8599
G1 X187.340 Y74.418 E1.8676
G1 X187.342 Y74.423 E1.8677
G1 X187.362 Y74.481 E1.8684
G1 X187.364 Y74.487 E1.8685
G1 X187.536 Y75.085 E1.8762
G1 X187.538 Y75.090 E1.8763
G1 X187.551 Y75.150 E1.8771
G1 X187.553 Y75.156 E1.8771
G1 X187.657 Y75.770 E1.8849
G1 X187.658 Y75.775 E1.8849
G1 X187.664 Y75.836 E1.8857
G1 X187.665 Y75.842 E1.8858
G1 X187.699 Y76.448 E1.8933
G1 X187.699 Y76.451 E1.8933
G1 X187.700 Y76.482 E1.8937
G1 X187.700 Y76.485 E1.8938
G1 X187.699 Y146.528 E2.7633
G1 X187.699 Y146.531 E2.7634
G1 X187.698 Y146.562 E2.7638
G1 X187.698 Y146.564 E2.7638
G1 X187.665 Y147.158 E2.7712
G1 X187.664 Y147.163 E2.7712
G1 X187.658 Y147.225 E2.7720
G1 X187.657 Y147.230 E2.7721
G1 X187.553 Y147.844 E2.7798
G1 X187.551 Y147.850 E2.7799
G1 X187.538 Y147.910 E2.7806
G1 X187.536 Y147.915 E2.7807
G1 X187.364 Y148.513 E2.7884
G1 X187.362 Y148.519 E2.7885
G1 X187.342 Y148.577 E2.7893
G1 X187.340 Y148.582 E2.7893
G1 X187.102 Y149.157 E2.7971
G1 X187.099 Y149.162 E2.7971
G1 X187.073 Y149.218 E2.7979
G1 X187.070 Y149.223 E2.7980
G1 X186.769 Y149.768 E2.8057
G1 X186.766 Y149.772 E2.8058
G1 X186.733 Y149.825 E2.8065
G1 X186.730 Y149.829 E2.8066
G1 X186.370 Y150.337 E2.8143
G1 X186.367 Y150.341 E2.8144
G1 X186.328 Y150.390 E2.8152
G1 X186.325 Y150.394 E2.8152
G1 X185.910 Y150.858 E2.8230
G1 X185.906 Y150.862 E2.8230
G1 X185.862 Y150.906 E2.8238
G1 X185.858 Y150.910 E2.8239
G1 X185.394 Y151.324 E2.8316
G1 X185.390 Y151.328 E2.8317
G1 X185.341 Y151.367 E2.8324
G1 X185.337 Y151.370 E2.8325
G1 X184.829 Y151.730 E2.8402
G1 X184.825 Y151.733 E2.8403
G1 X184.772 Y151.766 E2.8411
G1 X184.768 Y151.769 E2.8411
G1 X184.223 Y152.070 E2.8489
G1 X184.218 Y152.073 E2.8489
G1 X184.162 Y152.099 E2.8497
G1 X184.157 Y152.102 E2.8498
G1 X183.582 Y152.340 E2.8575
G1 X183.577 Y152.342 E2.8576
G1 X183.519 Y152.362 E2.8583
G1 X183.513 Y152.364 E2.8584
G1 X182.915 Y152.536 E2.8661
G1 X182.910 Y152.538 E2.8662
G1 X182.850 Y152.551 E2.8670
G1 X182.844 Y152.553 E2.8670
G1 X182.230 Y152.657 E2.8748
G1 X182.225 Y152.658 E2.8748
G1 X182.164 Y152.664 E2.8756
G1 X182.158 Y152.665 E2.8757
G1 X181.552 Y152.699 E2.8832
G1 X181.549 Y152.699 E2.8832
G1 X181.518 Y152.700 E2.8836
G1 X181.515 Y152.700 E2.8837
G1 X41.472 Y152.699 E4.6223
G1 X41.469 Y152.699 E4.6223
G1 X41.438 Y152.698 E4.6227
G1 X41.436 Y152.698 E4.6227
G1 X40.842 Y152.665 E4.6301
G1 X40.836 Y152.664 E4.6302
G1 X40.775 Y152.658 E4.6310
G1 X40.770 Y152.657 E4.6310
G1 X40.156 Y152.553 E4.6388
G1 X40.150 Y152.551 E4.6388
G1 X40.090 Y152.538 E4.6396
G1 X40.085 Y152.536 E4.6397
G1 X39.487 Y152.364 E4.6474
G1 X39.481 Y152.362 E4.6475
G1 X39.423 Y152.342 E4.6482
G1 X39.418 Y152.340 E4.6483
G1 X38.843 Y152.102 E4.6560
G1 X38.838 Y152.099 E4.6561
G1 X38.782 Y152.073 E4.6569
G1 X38.777 Y152.070 E4.6569
G1 X38.232 Y151.769 E4.6647
G1 X38.227 Y151.766 E4.6647
G1 X38.175 Y151.733 E4.6655
G1 X38.171 Y151.730 E4.6656
G1 X37.663 Y151.370 E4.6733
G1 X37.658 Y151.367 E4.6734
G1 X37.610 Y151.328 E4.6741
G1 X37.606 Y151.324 E4.6742
G1 X37.142 Y150.910 E4.6819
G1 X37.138 Y150.906 E4.6820
G1 X37.094 Y150.862 E4.6828
G1 X37.090 Y150.858 E4.6828
G1 X36.675 Y150.394 E4.6906
G1 X36.672 Y150.390 E4.6906
G1 X36.633 Y150.341 E4.6914
G1 X36.630 Y150.337 E4.6915
G1 X36.270 Y149.829 E4.6992
G1 X36.267 Y149.825 E4.6993
G1 X36.234 Y149.772 E4.7000
G1 X36.231 Y149.768 E4.7001
G1 X35.930 Y149.223 E4.7078
G1 X35.927 Y149.218 E4.7079
G1 X35.901 Y149.162 E4.7087
G1 X35.898 Y149.157 E4.7087
G1 X35.660 Y148.582 E4.7165
G1 X35.658 Y148.577 E4.7165
G1 X35.638 Y148.519 E4.7173
G1 X35.636 Y148.513 E4.7174
G1 X35.464 Y147.915 E4.7251
G1 X35.462 Y147.910 E4.7252
G1 X35.449 Y147.850 E4.7259
G1 X35.447 Y147.844 E4.7260
G1 X35.343 Y147.230 E4.7337
G1 X35.342 Y147.225 E4.7338
G1 X35.336 Y147.163 E4.7346
G1 X35.335 Y147.158 E4.7346
G1 X35.301 Y146.552 E4.7422
G1 X35.301 Y146.549 E4.7422
G1 X35.300 Y146.518 E4.7426
G1 X35.300 Y146.515 E4.7426
G1 X35.301 Y76.472 E5.6122
G1 X35.301 Y76.469 E5.6122
G1 X35.302 Y76.438 E5.6126
G1 X35.302 Y76.436 E5.6127
G1 X35.335 Y75.842 E5.6200
G1 X35.336 Y75.836 E5.6201
G1 X35.342 Y75.775 E5.6209
G1 X35.343 Y75.770 E5.6209
G1 X35.447 Y75.156 E5.6287
G1 X35.449 Y75.150 E5.6287
G1 X35.462 Y75.090 E5.6295
G1 X35.464 Y75.085 E5.6296
G1 X35.636 Y74.487 E5.6373
G1 X35.638 Y74.481 E5.6374
G1 X35.658 Y74.423 E5.6381
G1 X35.660 Y74.418 E5.6382
G1 X35.898 Y73.843 E5.6459
G1 X35.901 Y73.838 E5.6460
G1 X35.927 Y73.782 E5.6468
G1 X35.930 Y73.777 E5.6468
G1 X36.231 Y73.232 E5.6546
G1 X36.234 Y73.228 E5.6546
G1 X36.267 Y73.175 E5.6554
G1 X36.270 Y73.171 E5.6555
G1 X36.630 Y72.663 E5.6632
G1 X36.633 Y72.658 E5.6633
G1 X36.672 Y72.610 E5.6640
G1 X36.675 Y72.606 E5.6641
G1 X37.090 Y72.142 E5.6718
G1 X37.094 Y72.138 E5.6719
G1 X37.138 Y72.094 E5.6727
G1 X37.142 Y72.090 E5.6727
G1 X37.606 Y71.675 E5.6805
G1 X37.610 Y71.672 E5.6805
G1 X37.658 Y71.633 E5.6813
G1 X37.663 Y71.630 E5.6814
G1 X37.922 Y71.446 E5.6853
G1 X38.171 Y71.270 F2175
G1 X38.175 Y71.267 F2175
G1 X38.228 Y71.234 F2175
G1 X38.232 Y71.231 F2175
G1 X38.777 Y70.930 F2175
G92 E0
G1 E-4.0000 F1500
; inner perimeter
G1 X39.809 Y72.988 F6000
G1 E0.0000 F1500
G92 E0
G1 X40.212 Y72.820 E0.0054 F1885
G1 X40.633 Y72.699 E0.0109
G1 X41.064 Y72.626 E0.0163
G1 X41.531 Y72.600 E0.0221
G1 X181.482 Y72.601 E1.7596
G1 X181.936 Y72.626 E1.7652
G1 X182.367 Y72.699 E1.7707
G1 X182.788 Y72.820 E1.7761
G1 X183.191 Y72.988 E1.7815
G1 X183.574 Y73.199 E1.7869
G1 X183.931 Y73.452 E1.7924
G1 X184.257 Y73.744 E1.7978
G1 X184.548 Y74.069 E1.8032
G1 X184.801 Y74.426 E1.8087
G1 X185.012 Y74.809 E1.8141
G1 X185.179 Y75.212 E1.8195
G1 X185.301 Y75.633 E1.8249
G1 X185.374 Y76.064 E1.8304
G1 X185.400 Y76.531 E1.8362
G1 X185.399 Y146.482 E2.7046
G1 X185.374 Y146.936 E2.7103
G1 X185.301 Y147.367 E2.7157
G1 X185.179 Y147.788 E2.7211
G1 X185.012 Y148.191 E2.7265
G1 X184.801 Y148.574 E2.7320
G1 X184.548 Y148.931 E2.7374
G1 X184.256 Y149.256 E2.7428
G1 X183.931 Y149.548 E2.7483
G1 X183.574 Y149.801 E2.7537
G1 X183.191 Y150.012 E2.7591
G1 X182.788 Y150.179 E2.7645
G1 X182.367 Y150.301 E2.7700
G1 X181.936 Y150.374 E2.7754
G1 X181.469 Y150.400 E2.7812
G1 X41.518 Y150.399 E4.5187
G1 X41.064 Y150.374 E4.5243
G1 X40.633 Y150.301 E4.5298
G1 X40.212 Y150.179 E4.5352
G1 X39.809 Y150.012 E4.5406
G1 X39.426 Y149.801 E4.5461
G1 X39.069 Y149.548 E4.5515
G1 X38.744 Y149.256 E4.5569
G1 X38.452 Y148.931 E4.5623
G1 X38.199 Y148.574 E4.5678
G1 X37.988 Y148.191 E4.5732
G1 X37.820 Y147.787 E4.5786
G1 X37.699 Y147.367 E4.5840
G1 X37.626 Y146.936 E4.5895
G1 X37.600 Y146.469 E4.5953
G1 X37.601 Y76.518 E5.4637
G1 X37.626 Y76.063 E5.4694
G1 X37.699 Y75.633 E5.4748
G1 X37.820 Y75.213 E5.4802
G1 X37.988 Y74.809 E5.4857
G1 X38.199 Y74.426 E5.4911
G1 X38.452 Y74.069 E5.4965
G1 X38.744 Y73.744 E5.5019
G1 X38.976 Y73.536 E5.5058
G1 X39.069 Y73.452 F1885
G1 X39.426 Y73.199 F1885
G1 X39.809 Y72.988 F1885
G92 E0
G1 E-4.0000 F1500
; inner perimeter
G1 X39.617 Y72.591 F6000
G1 E0.0000 F1500
G92 E0
G1 X40.067 Y72.405 E0.0060 F1595
G1 X40.534 Y72.270 E0.0121
G1 X41.014 Y72.188 E0.0181
G1 X41.518 Y72.160 E0.0244
G1 X181.494 Y72.161 E1.7622
G1 X181.986 Y72.188 E1.7683
G1 X182.466 Y72.270 E1.7743
G1 X182.933 Y72.405 E1.7804
G1 X183.383 Y72.591 E1.7864
G1 X183.808 Y72.826 E1.7925
G1 X184.205 Y73.108 E1.7985
G1 X184.568 Y73.432 E1.8045
G1 X184.892 Y73.795 E1.8106
G1 X185.174 Y74.191 E1.8166
G1 X185.409 Y74.617 E1.8227
G1 X185.595 Y75.067 E1.8287
G1 X185.730 Y75.534 E1.8347
G1 X185.812 Y76.014 E1.8408
G1 X185.840 Y76.518 E1.8471
G1 X185.839 Y146.494 E2.7158
G1 X185.812 Y146.986 E2.7219
G1 X185.730 Y147.466 E2.7280
G1 X185.595 Y147.933 E2.7340
G1 X185.409 Y148.383 E2.7400
G1 X185.174 Y148.808 E2.7461
G1 X184.892 Y149.205 E2.7521
G1 X184.568 Y149.568 E2.7582
G1 X184.205 Y149.892 E2.7642
G1 X183.808 Y150.174 E2.7702
G1 X183.383 Y150.409 E2.7763
G1 X182.933 Y150.595 E2.7823
G1 X182.466 Y150.730 E2.7884
G1 X181.986 Y150.812 E2.7944
G1 X181.482 Y150.840 E2.8007
G1 X41.506 Y150.839 E4.5385
G1 X41.014 Y150.812 E4.5446
G1 X40.534 Y150.730 E4.5506
G1 X40.067 Y150.595 E4.5567
G1 X39.617 Y150.409 E4.5627
G1 X39.192 Y150.174 E4.5687
G1 X38.795 Y149.892 E4.5748
G1 X38.432 Y149.568 E4.5808
G1 X38.108 Y149.205 E4.5869
G1 X37.826 Y148.808 E4.5929
G1 X37.591 Y148.383 E4.5990
G1 X37.405 Y147.933 E4.6050
G1 X37.270 Y147.466 E4.6110
G1 X37.188 Y146.986 E4.6171
G1 X37.160 Y146.482 E4.6233
